icons/production/gmail.svg

<?xml version="1.0" encoding="UTF-8" standalone="no"?>
<svg width="24px" height="24px" viewBox="0 0 24 24" version="1.1" xmlns="http://www.w3.org/2000/svg">
<!--Generator: Sketch 3.8.3 (29802) - http://www.bohemiancoding.com/sketch-->
    <title>
        gmail
    </title>
    <desc>
        Created with Sketch.
    </desc>
    <g id="Page-1" stroke="none" stroke-width="1" fill="none" fill-rule="evenodd">
        <path d="M19.9994,17.9981 L17.9994,17.9981 L17.9994,9.24807 L11.9994,12.9981 L5.99939,9.24807 L5.99939,17.9981 L3.99939,17.9981 L3.99939,5.99807 L5.19939,5.99807 L11.9994,10.2481 L18.7994,5.99807 L19.9994,5.99807 L19.9994,17.9981 Z M19.9994,3.99807 L3.99939,3.99807 C2.89439,3.99807 2.00938,4.89306 2.00938,5.99807 L1.99939,17.9981 C1.99939,19.1021 2.89439,19.9981 3.99939,19.9981 L19.9994,19.9981 C21.1034,19.9981 21.9994,19.1021 21.9994,17.9981 L21.9994,5.99807 C21.9994,4.89306 21.1034,3.99807 19.9994,3.99807 L19.9994,3.99807 Z" id="gmail" fill="#000"/>
    </g>
</svg>

<svg xmlns="http://www.w3.org/2000/svg" viewBox="0 0 24 24">
    <path fill-rule="evenodd" d="M20 17.998h-2v-8.75l-6 3.75-6-3.75v8.75H4v-12h1.2l6.8 4.25 6.8-4.25H20v12zm0-14H4a1.99 1.99 0 0 0-1.99 2l-.01 12a2 2 0 0 0 2 2h16a2 2 0 0 0 2-2v-12a2 2 0 0 0-2-2z"/>
</svg>
